Sources/FrostedUI/Resources/Icons.xcassets/dollarCircle24.imageset/dollar-circle-24.svg

<svg width="24" height="24" viewBox="0 0 24 24" fill="none" xmlns="http://www.w3.org/2000/svg" data-fui-icon="true">
  <path
    d="M12 0C18.6274 0 24 5.37258 24 12C24 18.6274 18.6274 24 12 24C5.37258 24 0 18.6274 0 12C0 5.37258 5.37258 0 12 0ZM12 1.5C6.20101 1.5 1.5 6.20101 1.5 12C1.5 17.799 6.20101 22.5 12 22.5C17.799 22.5 22.5 17.799 22.5 12C22.5 6.20101 17.799 1.5 12 1.5ZM12.0107 4.34961C12.4246 4.34994 12.7605 4.68577 12.7607 5.09961V5.6582C15.3176 5.9276 16.3748 7.55874 16.5879 8.55566C16.6741 8.96057 16.4156 9.35977 16.0107 9.44629C15.606 9.53228 15.2077 9.2738 15.1211 8.86914C15.0422 8.50029 14.5277 7.41296 12.7607 7.16895V11.3691C13.529 11.5188 14.3472 11.7156 15.0137 12.0811C15.4564 12.3238 15.865 12.6565 16.1592 13.125C16.4553 13.5968 16.6044 14.1573 16.6045 14.8027C16.6042 16.3771 15.2363 18.0398 12.7607 18.3213V18.8838C12.7607 19.2978 12.4247 19.6335 12.0107 19.6338C11.5965 19.6338 11.2608 19.298 11.2607 18.8838V18.3223C10.1155 18.1962 9.26716 17.7857 8.6543 17.2598C7.92808 16.6365 7.58465 15.8997 7.43262 15.4355C7.30396 15.0421 7.51878 14.6183 7.91211 14.4893C8.30559 14.3606 8.72941 14.5754 8.8584 14.9688C8.95294 15.2573 9.17255 15.7269 9.63184 16.1211C9.97654 16.4168 10.4895 16.6974 11.2607 16.8105V12.6133C10.4921 12.4639 9.67276 12.269 9.00586 11.9033C8.56324 11.6606 8.1545 11.3278 7.86035 10.8594C7.56419 10.3875 7.4151 9.82619 7.41504 9.18066C7.41551 7.60603 8.78584 5.94266 11.2607 5.66113V5.09961C11.2609 4.68556 11.5967 4.34961 12.0107 4.34961ZM12.7607 16.8105C14.5004 16.5562 15.1042 15.4311 15.1045 14.8027C15.1044 14.395 15.0127 14.1205 14.8887 13.9229C14.7624 13.7219 14.5707 13.5489 14.293 13.3965C13.8861 13.1734 13.3684 13.0276 12.7607 12.8994V16.8105ZM11.2607 7.17188C9.52083 7.42623 8.91556 8.55278 8.91504 9.18066C8.9151 9.58854 9.00682 9.8638 9.13086 10.0615C9.25714 10.2626 9.44961 10.4355 9.72754 10.5879C10.1346 10.8111 10.653 10.9541 11.2607 11.082V7.17188Z"
    fill="currentColor"
  />
</svg>

<svg xmlns="http://www.w3.org/2000/svg" width="24" height="24" fill="none" data-fui-icon="true" viewBox="0 0 24 24"><path fill="currentColor" d="M12 0c6.627 0 12 5.373 12 12s-5.373 12-12 12S0 18.627 0 12 5.373 0 12 0m0 1.5C6.201 1.5 1.5 6.201 1.5 12S6.201 22.5 12 22.5 22.5 17.799 22.5 12 17.799 1.5 12 1.5m.01 2.85a.75.75 0 0 1 .75.75v.558c2.558.27 3.615 1.9 3.828 2.898a.75.75 0 0 1-1.467.313c-.079-.369-.593-1.456-2.36-1.7v4.2c.768.15 1.586.347 2.253.712.442.243.851.575 1.145 1.044q.444.709.446 1.678c0 1.574-1.369 3.237-3.844 3.518v.563a.75.75 0 0 1-1.5 0v-.562c-1.145-.126-1.994-.536-2.607-1.062a4.1 4.1 0 0 1-1.221-1.825.75.75 0 0 1 1.425-.466c.095.288.315.758.774 1.152.345.296.857.576 1.629.69v-4.198c-.769-.15-1.588-.344-2.255-.71-.443-.242-.851-.575-1.146-1.044q-.445-.71-.445-1.678c0-1.575 1.37-3.238 3.846-3.52V5.1a.75.75 0 0 1 .75-.75m.75 12.46c1.74-.254 2.344-1.379 2.345-2.007 0-.408-.092-.683-.216-.88-.127-.201-.318-.374-.596-.527-.407-.223-.925-.368-1.532-.497zm-1.5-9.638c-1.74.254-2.344 1.38-2.345 2.009 0 .408.092.683.216.88.126.202.319.374.597.527.407.223.925.366 1.533.494z"/></svg>
